svg/https.svg

<?xml version="1.0" encoding="UTF-8"?>
<svg xmlns="http://www.w3.org/2000/svg" xmlns:xlink="http://www.w3.org/1999/xlink" width="32" height="32" viewBox="0 0 32 32">
<path fill-rule="nonzero" fill="rgb(20.392157%, 59.607843%, 85.882353%)" fill-opacity="1" d="M 16 2.050781 C 11.023438 2.054688 6.425781 4.714844 3.9375 9.023438 L 6.714844 9.023438 C 7.9375 7.402344 9.558594 6.125 11.421875 5.316406 C 10.765625 6.484375 10.257812 7.730469 9.914062 9.023438 L 12.363281 9.023438 C 13.28125 6.167969 14.691406 4.378906 16 4.378906 C 17.3125 4.378906 18.714844 6.167969 19.636719 9.023438 L 22.085938 9.023438 C 21.746094 7.730469 21.238281 6.484375 20.578125 5.316406 C 22.441406 6.125 24.066406 7.402344 25.289062 9.023438 L 28.066406 9.023438 C 25.574219 4.714844 20.976562 2.058594 16 2.050781 M 3.9375 22.980469 C 6.425781 27.292969 11.023438 29.949219 16.003906 29.949219 C 20.980469 29.949219 25.578125 27.292969 28.066406 22.980469 L 25.289062 22.980469 C 24.066406 24.601562 22.445312 25.878906 20.578125 26.683594 C 21.238281 25.519531 21.746094 24.273438 22.085938 22.980469 L 19.636719 22.980469 C 18.71875 25.835938 17.316406 27.625 16 27.625 C 14.683594 27.625 13.28125 25.835938 12.367188 22.976562 L 9.914062 22.976562 C 10.253906 24.273438 10.761719 25.519531 11.421875 26.683594 C 9.558594 25.878906 7.933594 24.601562 6.714844 22.976562 Z M 2.273438 11.144531 L 4.132812 11.144531 L 4.132812 14.054688 L 4.152344 14.054688 C 4.449219 13.476562 5.203125 13.113281 5.878906 13.113281 C 7.773438 13.113281 7.925781 14.492188 7.925781 15.3125 L 7.925781 18.953125 L 6.066406 18.953125 L 6.066406 15.640625 C 6.066406 15.09375 5.878906 14.644531 5.136719 14.644531 C 4.4375 14.644531 4.132812 15.25 4.132812 15.851562 L 4.132812 18.953125 L 2.273438 18.953125 Z M 12.582031 14.488281 L 11.433594 14.488281 L 11.433594 17.0625 C 11.433594 17.507812 11.699219 17.605469 12.101562 17.605469 C 12.265625 17.605469 12.417969 17.585938 12.582031 17.585938 L 12.582031 18.953125 C 12.242188 18.953125 11.90625 19.007812 11.566406 19.007812 C 9.980469 19.007812 9.578125 18.535156 9.578125 16.996094 L 9.578125 14.488281 L 8.636719 14.488281 L 8.636719 13.28125 L 9.578125 13.28125 L 9.578125 11.5625 L 11.433594 11.5625 L 11.433594 13.28125 L 12.582031 13.28125 Z M 16.835938 14.488281 L 15.695312 14.488281 L 15.695312 17.0625 C 15.695312 17.507812 15.957031 17.605469 16.363281 17.605469 C 16.527344 17.605469 16.679688 17.585938 16.84375 17.585938 L 16.84375 18.953125 C 16.507812 18.953125 16.167969 19.007812 15.839844 19.007812 C 14.253906 19.007812 13.847656 18.535156 13.847656 16.996094 L 13.847656 14.488281 L 12.890625 14.488281 L 12.890625 13.28125 L 13.828125 13.28125 L 13.828125 11.5625 L 15.695312 11.5625 L 15.695312 13.28125 L 16.84375 13.28125 Z M 17.667969 13.28125 L 19.4375 13.28125 L 19.4375 13.9375 L 19.460938 13.9375 C 19.800781 13.40625 20.394531 13.097656 21.023438 13.117188 C 22.808594 13.117188 23.5625 14.636719 23.5625 16.246094 C 23.5625 17.722656 22.773438 19.121094 21.167969 19.121094 C 20.535156 19.144531 19.933594 18.851562 19.558594 18.34375 L 19.519531 18.34375 L 19.519531 20.859375 L 17.667969 20.859375 Z M 19.460938 16.058594 C 19.460938 17.054688 19.746094 17.699219 20.585938 17.699219 C 21.429688 17.699219 21.703125 16.835938 21.703125 16.058594 C 21.703125 15.335938 21.429688 14.539062 20.597656 14.539062 C 20.105469 14.535156 19.460938 14.875 19.460938 16.054688 Z M 26 17.082031 C 25.992188 17.328125 26.105469 17.5625 26.304688 17.710938 C 26.507812 17.847656 26.75 17.917969 26.996094 17.910156 C 27.34375 17.910156 27.867188 17.746094 27.867188 17.308594 C 27.867188 16.867188 27.277344 16.792969 26.960938 16.703125 C 25.792969 16.40625 24.328125 16.375 24.328125 14.84375 C 24.328125 13.488281 25.800781 13.105469 26.917969 13.105469 C 28.152344 13.105469 29.476562 13.46875 29.535156 14.941406 L 27.816406 14.941406 C 27.832031 14.746094 27.738281 14.5625 27.570312 14.460938 C 27.394531 14.351562 27.1875 14.300781 26.980469 14.316406 C 26.671875 14.316406 26.175781 14.347656 26.175781 14.742188 C 26.175781 15.269531 27.421875 15.386719 28.273438 15.5625 C 29.410156 15.792969 29.71875 16.621094 29.71875 17.09375 C 29.71875 18.613281 28.273438 19.105469 26.996094 19.105469 C 25.636719 19.105469 24.273438 18.65625 24.21875 17.074219 Z M 26 17.082031 "/>
</svg>

<svg role="img" viewBox="0 0 32 32" height="32" width="32" xmlns="http://www.w3.org/2000/svg"><path d="M16 2.05A13.946 13.946 0 0 0 3.938 9.024h2.777a11.759 11.759 0 0 1 4.707-3.707 15.925 15.925 0 0 0-1.508 3.707h2.45C13.28 6.168 14.69 4.38 16 4.38c1.313 0 2.715 1.789 3.637 4.644h2.449a15.592 15.592 0 0 0-1.508-3.707 11.77 11.77 0 0 1 4.711 3.707h2.777A13.966 13.966 0 0 0 16 2.051M3.938 22.98a13.928 13.928 0 0 0 24.128 0H25.29a11.702 11.702 0 0 1-4.71 3.703 15.498 15.498 0 0 0 1.507-3.704h-2.45c-.917 2.856-2.32 4.645-3.636 4.645-1.316 0-2.719-1.79-3.633-4.648H9.914c.34 1.296.848 2.543 1.508 3.707a11.666 11.666 0 0 1-4.707-3.707ZM2.273 11.144h1.86v2.91h.02c.296-.578 1.05-.942 1.726-.942 1.894 0 2.047 1.38 2.047 2.2v3.64h-1.86V15.64c0-.547-.187-.996-.93-.996-.699 0-1.003.605-1.003 1.207v3.101h-1.86Zm10.309 3.343h-1.148v2.575c0 .445.265.542.668.542.164 0 .316-.02.48-.02v1.368c-.34 0-.676.055-1.016.055-1.586 0-1.988-.473-1.988-2.012v-2.508h-.941V13.28h.941v-1.719h1.856v1.72h1.148Zm4.254 0h-1.14v2.575c0 .445.261.542.667.542.164 0 .317-.02.48-.02v1.368c-.335 0-.675.055-1.003.055-1.586 0-1.992-.473-1.992-2.012v-2.508h-.957V13.28h.937v-1.719h1.867v1.72h1.149Zm.832-1.207h1.77v.656h.023c.34-.53.934-.84 1.562-.82 1.786 0 2.54 1.52 2.54 3.13 0 1.476-.79 2.874-2.395 2.874a1.914 1.914 0 0 1-1.61-.777h-.038v2.515h-1.852Zm1.793 2.778c0 .996.285 1.64 1.125 1.64.844 0 1.117-.863 1.117-1.64 0-.723-.273-1.52-1.105-1.52-.493-.004-1.137.336-1.137 1.516ZM26 17.082a.754.754 0 0 0 .305.629c.203.137.445.207.691.2.348 0 .871-.165.871-.602 0-.442-.59-.516-.906-.606-1.168-.297-2.633-.328-2.633-1.86 0-1.355 1.473-1.738 2.59-1.738 1.234 0 2.559.364 2.617 1.836h-1.719a.51.51 0 0 0-.246-.48.978.978 0 0 0-.59-.145c-.308 0-.804.032-.804.426 0 .528 1.246.645 2.097.82 1.137.231 1.446 1.06 1.446 1.532 0 1.52-1.446 2.011-2.723 2.011-1.36 0-2.723-.449-2.777-2.03Zm0 0" fill="rgb(20.392157%, 59.607843%, 85.882353%)"/></svg>
